src/icons/editor/glyph/TableIcon.svg

<svg width="24" height="24" viewBox="0 0 24 24" fill="none" xmlns="http://www.w3.org/2000/svg">
<path fill-rule="evenodd" clip-rule="evenodd" d="M3 3C1.89543 3 1 3.89551 1 5V19C1 20.1045 1.89543 21 3 21H21C22.1046 21 23 20.1045 23 19V5C23 3.89551 22.1046 3 21 3H3ZM4 5C3.44771 5 3 5.44775 3 6V11H11V5H4ZM13 5V11H21V6C21 5.44775 20.5523 5 20 5H13ZM11 13H3V18C3 18.5522 3.44771 19 4 19H11V13ZM13 19V13H21V18C21 18.5522 20.5523 19 20 19H13Z" fill="currentColor"/>
</svg>

<svg xmlns="http://www.w3.org/2000/svg" width="24" height="24" fill="currentColor" viewBox="0 0 24 24">
  <path fill-rule="evenodd" d="M3 3a2 2 0 0 0-2 2v14a2 2 0 0 0 2 2h18a2 2 0 0 0 2-2V5a2 2 0 0 0-2-2H3Zm1 2a1 1 0 0 0-1 1v5h8V5H4Zm9 0v6h8V6a1 1 0 0 0-1-1h-7Zm-2 8H3v5a1 1 0 0 0 1 1h7v-6Zm2 6v-6h8v5a1 1 0 0 1-1 1h-7Z" clip-rule="evenodd"/>
</svg>
